X:1
T:Title
%%score { ( 1 3 ) | 2 }
L:1/8
M:4/4
K:Ab
V:1 treble nm="Grand Piano"
V:3 treble 
V:2 bass 
V:1
 z4 z2[Q:1/4=100] [Cc]2 | [CE]3 [CE] [DF][DG][EA]B | c2 d2 c2 [Ec]2 | B3 =A B2 [Fd]2 | %4
[M:3/4] [Ec]6 |[M:1/4] [Cc]2 |[M:4/4] [CE]3 [CE] [DF][DG][EA]B | c2 d2 c2 c2 | B3 A c2 B2 | %9
[M:3/4] [CA]6 |[M:1/4] A2 |[M:4/4] [Fd]3 [Fd] [DF]2 [FA]2 | c6 z2 | B3 B [Ac]2 [AB]2 |[M:3/4] e6 | %15
[M:1/4] E2 |[M:4/4] [Cc]3 [DB] [CA][B,G][CA][DB] |[M:9/8] c2 d- d e2- e [Fd]2 | %18
[M:4/4] [Ec]3 [CEA] [EAc]2 [DEB]2 |[M:3/4] [CEA]6 |] %20
V:2
 z4 z2 [A,,A,]2 | [A,,A,]3 [A,,A,] [D,A,][B,,E,][C,A,][E,G,E] | %2
 [A,E]2 [A,F]2[K:bass] [A,E]2 [A,,A,]2 | [E,G,D]3 [E,_G,C] [E,=G,D]2 [E,G,]2 |[M:3/4] [A,,A,]6 | %5
[M:1/4] [A,,A,]2 |[M:4/4] [A,,A,]3 [A,,A,] [D,A,][B,,E,][C,A,][E,G,E] | %7
 [A,E]2 [A,F]2[K:bass] [A,E]2 [A,E]2 | [E,G,D]3 [E,A,C] [E,A,E]2 [E,G,D]2 |[M:3/4] [A,,A,]6 | %10
[M:1/4] [A,C]2 |[M:4/4] [D,A,]3 [D,A,] [D,A,]2 [D,D]2 | %12
 [A,E][F,A,][E,A,][C,A,] [A,,A,]2[K:treble] [A,E]2 | [G,B,E]3 [G,EG][K:bass] [F,=D]2 [F,D]2 | %14
[M:3/4] [E,E][E,E] [E,C][E,C] [E,D]2 |[M:1/4] [E,G,D]2 | %16
[M:4/4] [A,,A,]3 [A,,A,] [A,,E,][A,,E,][A,,E,][A,,E,] | %17
[M:9/8] [A,E]2 [A,B,E]- [A,B,E] [A,CE]2- [A,CE] [D,A,]2 |[M:4/4] [E,A,]3 E, E,2 E,2 | %19
[M:3/4] A,,6 |] %20
V:3
 x8 | x8 | x8 | x8 |[M:3/4] x6 |[M:1/4] x2 |[M:4/4] x8 | x8 | x8 |[M:3/4] x6 |[M:1/4] x2 | %11
[M:4/4] x8 | z EEE E2 c2 | x8 |[M:3/4] GG AA B2 |[M:1/4] x2 |[M:4/4] x8 |[M:9/8] x9 |[M:4/4] x8 | %19
[M:3/4] x6 |] %20

